!!!OTL: MORGEN KOMMT DER WEIHNACHTSMANN
!!!ARE: Europa, Mitteleuropa, Deutschland
!!!SCT: B0640
!!!YEM: Copyright 1995, estate of Helmut Schaffrath.
**kern
*ICvox
*Ivox
*M2/4
*k[f#c#]
*D:
=1
{8dd
8a
8a
8f#
=2
8b
8a
4a}
=3
{8b
8a
8g
8f#
=4
4f#
4e}
=5
{8a
8e
8e
8g
=6
8f#
8e
4d}
=7
{8a
8e
8e
8g
=8
8f#
8e
4d}
=9
{8dd
8a
8a
8f#
=10
8b
8a
4a}
=11
{8b
8a
8g
8f#
=12
4e
4d}
==
!!!AGN: Kinder -, Weihnachts - Lied
!!!ONB: ESAC (Essen Associative Code) Database: BOEHME
!!!AMT: simple duple
!!!AIN: vox
!!!EED: Helmut Schaffrath
!!!EEV: 1.0
*-
